X:1
T:James Gibb editions
T:#
T:Ave Maria
T:Josquin des Prez (c.1455-1521)
%%score [ 1 2 3 4 ]
L:1/8
Q:1/4=180
M:none
K:C
V:1 treble nm="Sopraan" snm="Sop."
V:2 treble nm="Alt" snm="A."
V:3 treble-8 nm="Tenor" snm="T."
V:4 bass nm="Bas" snm="Bs."
V:1
"^\n" G4 c4- | c4 c4 | (d4 e4) | c8 | z8 | z8 | z8 | (c6 B2) | A4 G4 | (A2 G2 c4- | c2 BA B4) | %11
w: A- ve|* Ma-|ri\- *|a,||||gra\- *|ti- a|ple\- * *||
 c8 | z8 | z8 | z8 | z4 c4- | c2 c2 c4 | (d4 e4 | c3 B A2 G2 | F4 E2 c2- | cB A4 G2 | F4) E4 | z8 | %23
w: na:||||Do\-|* mi- nus|te\- *||||* cum||
 z8 | c8 | A4 G4 | (c4 d4) | e4 z2 (e2- | ed c4) B2 | c8 | z4 c4 | c4 d4 | e4 e2 (f2- | fe e4) d2 | %34
w: |Vir-|go se-|re\- *|na, se\-|* * * re-|na;|A-|ve, cu-|ius con ce\-|* * * pti-|
 e8 | z8 | z8 | z8 | z8 | z4 e4 | e4 e4 | f6 e2 | d4 c4 | B4 G4 | A4 B4 | c4 A4 | B4 c4 | d4 B4 | %48
w: o,|||||So-|lem- ni|ple- na|gau- di-|o, Coe-|le- sti-|a, ter-|re- stri-|a, No-|
 c4 d4 | (e3 d e2) (f2- | fedc d2) (e2- | ed c4) B2 | c8 | z4 G4 | c6 B2 | c4 d4 | B6 (AG) | %57
w: va re-|plet * * lae\-|* * * * * ti\-|* * * ti-|a.|A-|ve cu-|ius na-|ti- vi\- *|
 G4 G2 (A2- | AG c4 B2) | c8 | z8 | z8 | z8 | z4 d4 | e4 c4 | d4 B4 | c3 (B A4) | G8 | z8 | z8 | %70
w: tas, na- ti\-|* * * vi-|tas||||Ut|lu- ci-|fer lux|o- ri\- *|ens|||
 z4 G4 | c4 d4 | e4 d2 (e2- | ec c4 d2- | dB B4 e2 | dc c4 B2) | c4 z4 | c4 c2 c2 | d4 B2 (c2- | %79
w: Ve-|rum so-|lem prae- ve\-|||* * * ni-|ens.|A- ve pi-|a hu- mi\-|
 c2 B2) A4 | G8 | z8 | z8 | B4 B2 B2 | c4 B2 (A2- | A2 G2) F4 | (E4 z2 E2- | E2 DC G4) | z8 | z8 | %90
w: * * li-|tas,|||Cu- ius an-|nun- ci- a\-|* * ti-|o, *||||
 z8 | z8 | z8 |[M:3/4] G2 G2 G2 | A4 A2 | B4 B2 | G4 z2 | G2 G2 G2 | A4 A2 | B4 B2 | G4 G2 | %101
w: |||A- ve ve-|ra vir-|gi- ni-|tas,|Im- ma- cu-|la- ta|ca- sti-|tas, Cu-|
 c4 c2 | A4 A2 | (d3 c) (BA) | G4 G2 | c4 c2 | d2 (e3 c) | c4 B2 | c6- | c2 z4 | z4 d2- | d6 | %112
w: ius pu-|ri- fi-|ca\- * ti\- *|o No-|stra fu-|it pur\- *|ga- ti-|o.||A-||
 d4 d2- | d2 e4- | e2 dc B2- | B2 B2 d2- | d2 (cB A2-) | A2 G4- | G4 z2 | z6 | z6 | z2 d4- | %122
w: ve, prae-|* cla\-||* ra o\-|* mni\- * *|* bus||||An-|
 d4 d2- | d2 d4 | e6 | dc B4 | B2 (d2- d2 | cB) A4 | G6- | G2 z4 | z6 | z6 | z4 G2- | G2 A4 | %134
w: * ge-|* li-|cis||vir- tu\- *|* * ti-|bus,||||Cu-|* ius|
 B4 c2- | c4 d2 | c4 d2- | d2 e4- | e4 z2 | z6 | z4 e2- | e2 e4 | d4 c2- | c4 d2- | d4 c2- | %145
w: fu- it|* as-|sum- pti-|* o|||No-|* stra|glo- ri-|* fi\-|* ca\-|
 c2- c2 B2- | B4 c2- | c2 z4 | z6 | z6 | z6 | z6 | z6 | z2 c4- | c4 d2- | d2 e4 | f6- | f2 e4- | %158
w: * * ti-|* o.|||||||O|* Ma-|* ter|De-|* i,|
 e4 z2 | z2 e4 | e4 d2- | d2 c4- | c4 B2- | B6- | B6- | B2 c4- | c4- c2- | c6 | c6- | c2- c4- | %170
w: |Me-|men- to|* me-|* i.|||* A\-|||men.||
 c4 z2 |] %171
w: |
V:2
 z8 | z8 | G,4 C4- | C4 C4 | (D4 E4) | C8 | z8 | z8 | z8 | (C6 B,2) | A,4 G,4 | (A,2 G,2 C4- | %12
w: ||A- ve|* Ma-|ri\- *|a,||||gra\- *|ti- a|ple\- * *|
 C2 B,A, B,4 | C8) | z8 | z8 | z8 | z4 C4- | C2 C2 C4 | (D4 E4) | C8 | z8 | C8 | A,4 G,4 | %24
w: |na:||||Do\-|* mi- nus|te\- *|cum||Vir-|go se-|
 (A,3 B, C4- | C2 D2 E4- | E2 DC G3 F | ED C6 | E2 F2 G4) | E8 | z4 C4 | E4 F4 | G4 G2 (A2- | %33
w: re\- * *|||||na;|A-|ve, cu-|ius con ce\-|
 A2 G2) F4 | E8 | z4 A,4 | B,6 (C2- | CB, B,4 A,2) | B,8 | z4 C4 | C4 C4 | (C6 DE | F2 D2) G4- | %43
w: * * pti-|o,|con-|ce- pti\-||o,|So-|lem- ni|ple\- * *|* * na|
 G8 | F2 A2 G4 | C4 A4 | G2 B2 A4 | (D3 E) F2 G2 | C4 z2 D2 | C2 (A,3 B, C2) | D2 (G,3 A, B,2) | %51
w: |gau\- * di-|o, Coe-|le- sti- a,|ter- * re- stri-|a, No-|va re\- * *|plet lae\- * *|
 C2 A,2 G,4 | G,2 (G3 F) (ED) | E4 z4 | C4 F4- | F2 E2 F4 | G4 (E4- | E2 DC C4 | B,2 C2) D4 | %59
w: ti- ti- a,|lae- ti\- * ti\- *|a.|A- ve|* cu- ius|na- ti\-||* * vi-|
 C4 z4 | z8 | z8 | z8 | z8 | z8 | z4 G4 | A4 F4 | G4 E4 | F3 (E D4) | (C3 B, C2) (D2- | %70
w: tas||||||Ut|lu- ci-|fer lux|o- ri\- *|ens * * Ve\-|
 DB,) B,4 (C2- | CA,) A,4 (G,F,) | (C4 B,4 | C4) A,4 | G,8 | z8 | z8 | C4 C2 C2 | G4 G2 (A2- | %79
w: * * rum so\-|* * lem prae\- *|ve\- *|* ni-|ens.|||A- ve pi-|a hu- mi\-|
 AG G4) ^F2 | G8 | z8 | z8 | (G3 F) E2 D2 | C4 D2 (F2- | FE E4) D2 | (E6 DC | G4 C4) | z8 | z8 | %90
w: * * * li-|tas,|||Cu\- * ius an-|nun- ci- a\-|* * * ti-|o, * *||||
 z8 | z8 | z8 |[M:3/4] E2 E2 E2 | (F3 E) (DC) | B,4 B,2 | C4 z2 | E2 E2 E2 | (F3 E) (DC) | %99
w: |||A- ve ve-|ra * vir\- *|gi- ni-|tas,|Im- ma- cu-|la\- * ta *|
 B,4 B,2 | C4 G2 | A4 A2 | F4 F2 | G4 D2 | E4 E2 | (A3 G) (FE) | D2 B,2 C2 | A,2 G,4 | G4 E2- | %109
w: ca- sti-|tas, Cu-|ius pu-|ri- fi-|ca- ti-|o No-|stra * fu\- *|it pur- ga-|ti- o,|pur- ga\-|
 E2- E2 (DC) | C4 z2 | z2 G4 | G4 F2- | F2 (E2 DC | G4) G,2- | G,6 | z4 (A,2- | A,2 B,2 C2-) | %118
w: * * ti\- *|o.|A-|ve, prae-|* cla\- * *|* ra||o\-||
 C2 C2 (DC |B,A, G,4) | z6 | z6 | G4 G2- | G2 F4 | (E2 DC G2-) | G2 G,4- | G,4 z2 | z2 A,4 | %128
w: * mni- bus *||||An- ge-|* li-|cis * * *|||vir-|
 (B,2 C4) | C2 (DCB,A, | G,4) z2 | z6 | z2 (G4 | FE F2) D2- | D2 E2- E2 | (DC D4) | z2 F4 | %137
w: tu\- *|ti- bus, * * *|||Cu\-|* * * ius|* fu\- *|it * *|as-|
 (ED G3 F | G2 E2- ED | CB, A,4 | B,2) G,2 G2- | G2 z2 G2- | GF D2 E2 | (F3 EDC) | B,4 C2- | %145
w: sum\- * * *|||* pti- o|* No-|* stra glo- ri-|fi\- * * *|ca- ti-|
 C2 G,4 | z2 (G2- GF |ED E2) (A,2- | A,2 C2) G,2 | (A,2- A,G, G,2-) | G,2 F,2 G,2- | G,6 | z6 | %153
w: * o,|glo\- * *|* * * ri\-|* * fi-|ca\- * * *|* ti- o.|||
 z2 G4- | G4 G2- | G2 G4 | A6- | A2 G4- | G4 z2 | z2 G4 | G4 G2- | G2 (E4 | F4) G2- | G6- | G6- | %165
w: O|* Ma-|* ter|De-|* i,||Me-|men- to|* me\-|* i.|||
 G2 G4- | G4- G2- | G6 | G6- | G2- G4- | G4 z2 |] %171
w: * A\-|||men.|||
V:3
 z8 | z8 | z8 | z8 | G4 c4- | c4 c4 | (d4 e4) | c8 | z8 | z8 | z8 | (c6 B2) | A4 G4 | (A2 G2 c4- | %14
w: ||||A- ve|* Ma-|ri\- *|a,||||gra\- *|ti- a|ple\- * *|
 c2 BA B4) | c8 | z8 | z8 | z8 | z4 c4- | c2 c2 c4 | (d4 e4 | c2 e3 d g2- | g2 ^f2) g4 | z8 | c8 | %26
w: |na:||||Do\-|* mi- nus|te\- *||* * cum||Vir-|
 A4 G4 | (g3 f ed c2- | cB c2 d4) | c8- | c8 | z8 | z8 | z8 | z4 c4 | c4 d4 | e4 e2 (f2- | %37
w: go se-|re\- * * * *||na;|||||A-|ve, cu-|ius con ce\-|
 fe e4) d2 | e8 | z4 g4 | g4 g4 | a6 g2 | f4 e4 | d4 B2 c2- | c2 d4 e2- | e2 c4 d2- | d2 e4 f2- | %47
w: * * * pti-|o,|So-|lem- ni|ple- na|gau- di-|o, Coe- le\-|* sti- a,|* ter- re\-|* stri- a,|
 f2 d4 e2- | e2 f4 g2- | g2 (a3 g a2 | f2) (g3 f g2 | e2 f2) d4 | c8- | c8 | z8 | z8 | z8 | z8 | %58
w: * No- va|* re- plet|* lae\- * *|* ti\- * *|* * ti-|a.||||||
 z4 G4 | c6 B2 | c4 d4 | B6 (AG) | G4 G2 (A2- | AG c4 B2) | c8 | z8 | z4 d4 | e4 c4 | d4 B4 | %69
w: No-|stra fu-|it so-|le- mni\- *|tas, so- le\-|* * * mni-|tas,||Ut|lu- ci-|fer lux|
 c3 (B A4) | G4 g4 | a4 f4 | g4 z2 (g2 | e2) (f3 edc | B2 G2 g4 | f2 e2) d4 | c8 | z8 | z8 | z8 | %80
w: o- ri\- *|ens Ve-|rum so-|lem prae\-|* ve\- * * *||* * ni-|ens.||||
 c4 c2 c2 | d4 (B2 c2- | c2 B2 A4) | G8 | z8 | z8 | z8 | z4 e4 | e4 d4 | f4 e4 | (d3 c d2 e2- | %91
w: Si- ne vi-|ro fe- cun\-|* * di-|tas,||||No-|stra fu-|it sal-|va\- * * *|
 ed c4 B2) | c8 |[M:3/4] z2 c2 c2 | c2 d4 | d2 e4 | e2 c4 | z2 c2 c2 | c2 d4 | d2 e4 | e2 c4 | %101
w: * * * ti-|o.|A- ve|ve- ra|vir- gi-|ni- tas,|Im- ma-|cu- la-|ta ca-|sti- tas,|
 e2 f4 | f2 d4 | d2 (g3 f) | (ed) c4 | c2 f4 | f2 g2 e2 | f2 d4 | c6- | c2- c4- | c4 z2 | z6 | z6 | %113
w: Cu- ius|pu- ri-|fi- ca\- *|ti\- * o|No- stra|fu- it pur-|ga- ti-|o.|||||
 z6 | z4 d2- | d6 | d4 d2- | d2 (e4- | e2 dc B2-) | B2 B2 d2- | d2 (cB A2-) | A2 G4- | G4 z2 | z6 | %124
w: |A-||ve, prae-|* cla\-||* ra o\-|* mni\- * *|* bus|||
 z6 | z2 d4- | d4 d2- | d2 d4 | (e6 | dc B4) | B2 d2- d2 | (cB A4) | G6- | G2 z4 | z6 | z2 G4 | %136
w: |An-|* ge-|* li-|cis||vir- tu\- *|ti\- * *|bus,|||Cu-|
 A4 B2- | B2 c4- | c2 d2 c2- | c2 d4 | e6- | e2 z4 | z6 | z6 | z4 e2- | e2 e4 | d4 c2- | c4 d2- | %148
w: ius fu-|* it|* as- sum-|* pti-|o||||No-|* stra|glo- ri-|* fi\-|
 d4 c2- | c2- c2 B2- | B4 c2- | c6 | z6 | z2 c4- | c4 B2- | B2 B4 | (A6 | B2) c4- | c4 z2 | z2 c4 | %160
w: * ca\-|* * ti-|* o.|||O|* Ma-|* ter|De\-|* i,||Me-|
 c4 B2- | B2 c4- | c4 d2- | d6- | d6- | d2 c4- | c4- c2- | c6 | c6- | c2- c4- | c4 z2 |] %171
w: men- to|* me-|* i.|||* A\-|||men.|||
V:4
 z8 | z8 | z8 | z8 | z8 | z8 | G,,4 C,4- | C,4 C,4 | (D,4 E,4) | C,8 | z8 | z8 | z8 | (C,6 B,,2) | %14
w: ||||||A- ve|* Ma-|ri\- *|a,||||gra\- *|
 A,,4 G,,4 | (A,,6 B,,2) | C,8 | z8 | z8 | z8 | z8 | z4 C,4- | C,2 C,2 C,4 | (D,4 E,4) | C,8 | z8 | %26
w: ti- a|ple\- *|na:|||||Do\-|* mi- nus|te\- *|cum||
 z8 | C,8 | A,,4 G,,4 | (A,,6 B,,2) | C,8 | z8 | z8 | z8 | z4 C,4 | E,4 F,4 | G,4 G,2 (A,2- | %37
w: |Vir-|go se-|re\- *|na;||||A-|ve, cu-|ius con ce\-|
 A,2 G,2) F,4 | E,8 | z4 C,4 | C,4 C,4 | (F,3 E, F,2) C,2 | (D,2 _B,,2) C,4 | G,6 E,2 | F,4 G,4 | %45
w: * * pti-|o,|So-|lem- ni|ple\- * * na|gau\- * di-|o, Coe-|le- sti-|
 A,6 F,2 | G,4 A,4 | B,6 G,2 | A,4 B,4 | (C3 B, C2) A,2 | (_B,3 A, B,2 G,2 | A,2 F,2) G,4 | C,8- | %53
w: a, ter-|re- stri-|a, No-|va re-|plet * * lae-|ti\- * * *|* * ti-|a.|
 C,8 | z8 | z8 | z8 | z8 | z8 | C,4 F,4- | F,2 E,2 F,4 | G,4 (E,4- | E,2 D,C, C,4 | B,,2 C,2) D,4 | %64
w: ||||||No- stra|* fu- it|so- le\-||* * mni-|
 C,8 | z8 | z8 | z8 | z4 G,4 | A,4 F,4 | G,4 E,4 | F,3 (E, D,4) | C,4 G,4 | A,4 F,4 | G,4 E,4 | %75
w: tas,||||Ut|lu- ci-|fer lux|o- ri\- *|ens Ve-|rum so-|lem prae-|
 F,4 G,4 | C,8 | z8 | z8 | z8 | C,4 C,2 C,2 | G,4 G,2 (A,2- | A,G, G,4) ^F,2 | G,8 | z8 | z8 | z8 | %87
w: ve- ni-|ens.||||Si- ne vi-|ro fe- cun\-|* * * di-|tas,||||
 z4 C,4 | G,6 (F,2- | F,2 E,D,) C,2 G,2- | G,2 (F,4 E,D, | C,2 E,2) D,4 | C,8 |[M:3/4] C2 C2 C2 | %94
w: No-|stra fu\-|* * * it sal\-|* va\- * *|* * ti-|o.|A- ve ve-|
 F,4 F,2 | G,4 G,2 | C,4 z2 | C2 C2 C2 | F,4 F,2 | G,4 G,2 | C,4 C2 | A,4 A,2 | D4 D2 | G,4 G,2 | %104
w: ra vir-|gi- ni-|tas,|Im- ma- cu-|la- ta|ca- sti-|tas, Cu-|ius pu-|ri- fi-|ca- ti-|
 C4 C2 | A,4 A,2 | (B,2 G,2) A,2 | F,2 G,4 | C,6- | C,2- C,4- | C,4 z2 | z6 | z6 | z6 | z6 | %115
w: o No-|stra fu-|it * pur-|ga- ti-|o.|_ _||||||
 z2 G,4 | G,4 F,2- | F,2 E,4 | C,4 (G,2- | G,4 ^F,E, | ^F,2 G,4) | ^F,2 G,4- | G,4 z2 | z6 | z6 | %125
w: A-|ve, prae-|* cla-|ra o\-|||mni- bus||||
 z6 | G,4 G,2- | G,2 F,4 | E,4 C,2- | C,2 (G,4- | G,2 ^F,E, F,2 | G,4) ^F,2 | G,6- | G,2 z4 | z6 | %135
w: |An- ge-|* li-|cis vir-|* tu\-||* ti-|bus,|||
 z2 G,4 | F,3 E, D,2- | D,2 (C,3 D, | E,F, G,2) (A,2 | E,2) F,4 | G,6- | G,2 z4 | z6 | z6 | z6 | %145
w: Cu-|ius fu- it|* as\- *|* * * sum\-|* pti-|o|||||
 z6 | G,4 E,2 | (A,3 G,F,E, | F,2) G,2 E,2 | (F,2- F,E,D,C,) | D,4 C,2- | C,6 | z6 | z2 C,4- | %154
w: |No- stra|glo\- * * *|* ri- fi-|ca\- * * * *|ti- o.|||O|
 C,4 G,2- | G,2 G,4 | (F,6 | E,D,) C,4- | C,4 z2 | z2 C,4 | C,4 G,2- | G,2 A,4- | A,4 G,2- | G,6- | %164
w: * Ma-|* ter|De\-|* * i,||Me-|men- to|* me-|* i.|_|
 G,6- | G,2 C,4- | C,4- C,2- | C,6 | C,6- | C,2- C,4- | C,4 z2 |] %171
w: |* A\-|_ _||men.|_ _||

